src/assets/wheel.svg

<svg width="108" height="117" viewBox="0 0 108 117" fill="none" xmlns="http://www.w3.org/2000/svg">
<g filter="url(#filter0_d_186_25012)">
<path d="M42.9929 0.928223C37.1356 0.970276 32.4949 5.46886 32.2451 11.5617C32.2877 17.4904 36.834 22.0856 42.9929 22.3122C48.4774 22.2379 53.3491 17.7162 53.6263 11.5617C53.5847 5.65699 49.0652 1.19742 42.9929 0.928223ZM45.9644 24.7118C43.5251 24.7117 41.4669 25.5311 39.7898 27.1699C38.4272 28.5375 36.9016 31.554 37.3902 33.9752H37.2758L43.5649 64.2767C44.2135 67.7475 47.0701 69.9854 50.8836 70.2226C59.644 70.1985 69.1432 69.9996 78.0963 70.1082L93.1911 96.4086C94.8896 99.9931 99.2388 100.748 102.396 98.1246C103.911 96.6215 104.523 94.0643 103.481 91.8354L85.9869 61.4167C84.7265 58.8089 82.2396 57.3398 79.1258 57.1868H59.6865L57.4014 45.9814H72.6079C75.8953 46.2246 78.2636 43.7158 77.5829 40.2644C77.0827 38.5779 75.3352 37.0252 73.2944 36.9469H55.4566C54.5577 32.352 54.7007 29.5743 51.1682 26.4279C49.6817 25.2843 47.9464 24.7118 45.9644 24.7118ZM29.5609 37.6806C29.0776 37.6877 28.5966 37.7485 28.1267 37.8619C21.3906 40.4829 15.3305 44.987 10.6322 51.2409C6.49206 57.0791 4.17741 64.1066 4 71.8241C4.06893 80.9707 7.99653 90.3569 15.0352 97.438C21.8574 103.936 31.3268 107.858 41.5058 108.071C48.9301 108.031 56.3517 105.838 63.1186 101.498C69.1963 97.3695 73.9592 91.4453 76.8379 84.0592C77.3716 82.7631 77.8295 81.3128 78.2107 79.712C78.7688 77.1954 77.3563 75.1509 74.6671 74.3381C72.2212 73.7962 70.0338 75.1457 69.1788 77.77C68.9517 78.9077 68.6067 80.0186 68.1493 81.0848C66.2074 86.2193 62.5929 90.6636 57.8005 94.1205C53.1411 97.289 47.5608 99.0146 41.5058 99.1513C34.3049 99.1001 27.3689 96.3553 21.5531 91.149C16.5558 86.304 13.4297 79.3711 13.2634 71.8241C13.2954 66.4442 15.0279 61.1352 18.2942 56.3302C21.4973 51.8831 25.9813 48.4488 31.4443 46.2102C33.7464 45.4552 34.9865 43.0718 34.1871 40.4931C33.4148 38.6394 31.5956 37.6531 29.5609 37.6806Z" fill="#00AACB"/>
</g>
<defs>
<filter id="filter0_d_186_25012" x="0" y="0.928223" width="108" height="115.143" filterUnits="userSpaceOnUse" color-interpolation-filters="sRGB">
<feFlood flood-opacity="0" result="BackgroundImageFix"/>
<feColorMatrix in="SourceAlpha" type="matrix" values="0 0 0 0 0 0 0 0 0 0 0 0 0 0 0 0 0 0 127 0" result="hardAlpha"/>
<feOffset dy="4"/>
<feGaussianBlur stdDeviation="2"/>
<feComposite in2="hardAlpha" operator="out"/>
<feColorMatrix type="matrix" values="0 0 0 0 0 0 0 0 0 0 0 0 0 0 0 0 0 0 0.25 0"/>
<feBlend mode="normal" in2="BackgroundImageFix" result="effect1_dropShadow_186_25012"/>
<feBlend mode="normal" in="SourceGraphic" in2="effect1_dropShadow_186_25012" result="shape"/>
</filter>
</defs>
</svg>

<svg xmlns="http://www.w3.org/2000/svg" width="108" height="117" fill="none" viewBox="0 0 108 117"><g filter="url(#a)"><path fill="#00aacb" d="M42.993.928c-5.857.042-10.498 4.54-10.748 10.634.043 5.928 4.589 10.524 10.748 10.75 5.484-.074 10.356-4.596 10.633-10.75-.041-5.905-4.56-10.365-10.633-10.634m2.971 23.784q-3.659 0-6.174 2.458c-1.363 1.367-2.888 4.384-2.4 6.805h-.114l6.289 30.302c.649 3.47 3.505 5.708 7.319 5.946 8.76-.025 18.26-.223 27.212-.115l15.095 26.3c1.699 3.585 6.048 4.34 9.205 1.717 1.515-1.504 2.127-4.06 1.085-6.29L85.987 61.417c-1.26-2.608-3.747-4.077-6.861-4.23h-19.44L57.402 45.98h15.207c3.287.244 5.656-2.265 4.975-5.717-.5-1.686-2.248-3.239-4.289-3.317H55.457c-.9-4.595-.756-7.373-4.289-10.52q-2.23-1.715-5.204-1.715M29.561 37.68a6.5 6.5 0 0 0-1.434.18c-6.736 2.622-12.796 7.126-17.495 13.38C6.492 57.079 4.177 64.107 4 71.824c.069 9.147 3.997 18.533 11.035 25.614 6.822 6.498 16.292 10.42 26.47 10.633 7.425-.04 14.847-2.233 21.614-6.573 6.077-4.129 10.84-10.053 13.719-17.439q.801-1.945 1.373-4.347c.558-2.517-.855-4.561-3.544-5.374-2.446-.542-4.633.808-5.488 3.432a16.7 16.7 0 0 1-1.03 3.315c-1.942 5.134-5.556 9.579-10.349 13.036-4.659 3.168-10.24 4.894-16.294 5.03-7.201-.05-14.137-2.796-19.953-8.002-4.997-4.845-8.123-11.778-8.29-19.325.032-5.38 1.765-10.689 5.031-15.494 3.203-4.447 7.687-7.881 13.15-10.12 2.302-.755 3.543-3.138 2.743-5.717-.772-1.854-2.591-2.84-4.626-2.812"/></g><defs><filter id="a" width="108" height="115.143" x="0" y=".928" color-interpolation-filters="sRGB" filterUnits="userSpaceOnUse"><feFlood flood-opacity="0" result="BackgroundImageFix"/><feColorMatrix in="SourceAlpha" result="hardAlpha" values="0 0 0 0 0 0 0 0 0 0 0 0 0 0 0 0 0 0 127 0"/><feOffset dy="4"/><feGaussianBlur stdDeviation="2"/><feComposite in2="hardAlpha" operator="out"/><feColorMatrix values="0 0 0 0 0 0 0 0 0 0 0 0 0 0 0 0 0 0 0.25 0"/><feBlend in2="BackgroundImageFix" result="effect1_dropShadow_186_25012"/><feBlend in="SourceGraphic" in2="effect1_dropShadow_186_25012" result="shape"/></filter></defs></svg>
